!!!COM: Anonymous
!!!OTL: Les tres des plus heureulx du monde
!!!AGN: Song; Chanson; Rondeau
!!!SCT: Ano3113
!!!SCA: Ano3113
!!!SMS: Dijon Chansonnier
!!!folio: 124v-125r
!!!SMS2: Niv
!!!voices: 3
**kern	**kern	**kern
*staff3	*staff2	*staff1
*Ivox	*Ivox	*Ivox
*I"Contra	*I"Tenor	*I"Discantus
*I'C	*I'T	*I'D
*clefF4	*clefGv2	*clefG2
*k[b-]	*k[b-]	*k[b-]
*M2/1	*M2/1	*M2/1
*met(C)	*met(C)	*met(C)
=1-	=1-	=1-
1.GG	1.G	1g
.	.	2b-
2AA	2E	2cc
=2	=2	=2
1BB-	2D	1dd
.	1G	.
2GG	.	2b-
[2D	2F	[2a
=3	=3	=3
2D]	1B-	2a]
2E	.	2g
1F	1A	1cc
=4	=4	=4
1G	2r	4b-
.	.	4a
.	2.d	2g
1D	.	1f
.	4c	.
.	[2d	.
=5	=5	=5
0GG	4d]	2r
.	4c	.
.	4B-	1g
.	4A	.
.	1G	.
.	.	2b-
=6	=6	=6
1D	2r	2a
.	2F	1dd
2E	2G	.
2F	2A	2cc
=7	=7	=7
1G	2G	2b-
.	2B-	4a
.	.	4g
1D	1A	2.f#i
.	.	4e
=8	=8	=8
0GG	2r	1g
.	1G	.
.	.	1r
.	2B-	.
=9	=9	=9
2.D	2A	0f
.	1d	.
4C	.	.
2BB-	.	.
2AA	2c	.
=10	=10	=10
2GG	2B-	1g
2BB-	4A	.
.	4G	.
1AA	2.F#i	1a
.	4E	.
=11	=11	=11
0GG	0G	0b-
=12	=12	=12
1D	1r	1.a
2.C	1c	.
.	.	2g
4BB-	.	.
=13	=13	=13
[0GG	1.B-	1g
.	.	1r
.	2A	.
=14	=14	=14
1GG]	1G	1b-
1D	1F	1a
=15	=15	=15
0GG	1.G	1.b-
.	4F	4a
.	4E	4g
=16	=16	=16
1BB-	1.D	1f
1GG	.	1b-
.	[2G	.
=17	=17	=17
1D	2G]	1a
.	2F	.
2GG	2B-	2g
[2FF	2c	[2a
=18	=18	=18
2FF]	1A	2a]
2AA	.	2cc
1GG	2B-	2.dd
.	[2G	.
.	.	4cc
=19	=19	=19
2G	2G]	2b-
2F	2A	2a
1E	2B-	2g
.	2c	4f
.	.	4e
=20	=20	=20
0DN	[0dN	0fN
=21	=21	=21
1BB-	0d]	0r
[1GG	.	.
=22	=22	=22
1GG]	0r	1b-
1AA	.	1cc
=23	=23	=23
1GG	1B-	2.dd
.	.	4cc
1r	1c	1a
=24	=24	=24
1GG	2.d	1b-
.	4c	.
1FF	1A	2.cc
.	.	4b-
=25	=25	=25
1GG	1B-	1.g
1r	2.c	.
.	.	2a
.	4B-	.
=26	=26	=26
0GG	1.G	2b-
.	.	2.dd
.	.	4cc
.	2d	[2b-
=27	=27	=27
1F	2c	4b-]
.	.	4a
.	2A	1a
1G	1B-	.
.	.	2g
=28	=28	=28
1.D	[0A	1a
.	.	1r
2C	.	.
=29	=29	=29
1AA	1A]	1cc
2GG	2d	2b-
2AA	[2c	[2a
=30	=30	=30
2FF	2c]	4a]
.	.	4g
2GG	2B-	1g
1D	1A	.
.	.	2f
=31	=31	=31
1E	1G	2g
.	.	2e
2F	2r	1d
2D	2F	.
=32	=32	=32
2r	2G	2e
2G	2E	1g
1A	1D	.
.	.	2f
=33	=33	=33
1G	2E	2g
.	1G	2b-
1D	.	1a
.	2F	.
=34	=34	=34
2E	2G	2r
2G	2B-	1dd
2D	1A	.
[2F	.	[2cc
=35	=35	=35
2F]	2r	4cc]
.	.	4b-
2G	1d	4a
.	.	4g
2D	.	2f
[2E	[2c	[2g
=36	=36	=36
4E]	4c]	2g]
4F	4B-	.
2G	4A	2b-
.	4G	.
2D	2F	2a
2BB-	[2G	[2b-
=37	=37	=37
1GG	2G]	4b-]
.	.	4cc
.	2B-	4b-
.	.	8aL
.	.	8gJ
1D	1A	2.f#i
.	.	4e
=38	=38	=38
0GGl	0Gl	0gl
==	==	==
*-	*-	*-
!!!RDF**kern: l=long note in original notation
!!!RDF**kern: i=editorial accidental
!!!RDF**kern: N=signum congruentiae
!!!ENC: Chris Gage 09-14-2016
!!!END: 2018/09/28/
!!!EED: Jesse Rodin
!!!EEV: 2018/11/29/
!!!ONB: Translated from MusicXML and edited on 2018/11/29/ by Craig Sapp
!!muse2ps: C^@{COM}\n@{SMS}, @{folio}, also @{SMS2}^v95,95,150c180
